!!!!SEGMENT: pl-wtm--a-43-196-99--001-006_kazuro-stanislaw--25-piesni-dzieciecych-z-fortepianem-op-49-wizyta-u-krowy.krn
!!!cenid: 19xx:202
!!!COM: Kazuro, Stanisław
!!!COM-rismID: pe50047136
!!!CDT: 1881/08/02-1961/11/30
!!!CNT: Polish
!!!GTL: 25 Pieśni dziecięcych z fortepianem, op. 49
!!!OTL: Wizyta u krowy
!!!OMV: 006
!!!PDT: 1950
!!!AGN:
!!!YEC: Copyright 2022 Narodowy Instytut Fryderyka Chopina (https://polishscores.org)
!!!YEM: License CC-BY-4.0 (https://creativecommons.org/licenses/by/4.0)
!!!SMS-siglum: PL-Wtm
!!!SMS-shelfmark: A-43.196/99
!!!SMS-variant:
!!!SMS-altvar:
!!!SMS-shelfwork: 001-006 G
!!!NIFC-rismSourceID: 1001164821
!!!NIFC-rismChildID: 1001164821
!!!NIFC-islandoraID: pl-wtm:43198
!!!URL-pdf-islandora: https://repozytorium.nifc.pl/islandora/object/pl-wtm:43198/datastream/PDF/view
!!!URL-scan: https://polish.musicsources.pl/pl/lokalizacje/galeria/druki-muzyczne/22428/8 @EN{Scan on Polish Music Sources Website} @PL{Skany w portalu Dziedzictwo Muzyki Polskiej w otwartym dostępie}
!!!IIIF:
!!!ONB-nifc:
!!!AIN: 1 canto 1 piano
!!!key: G
**kern	**kern	**dynam	**kern	**text	**dynam
*part2	*part2	*part2	*part1	*part1	*part1
*staff3	*staff2	*staff2/3	*staff1	*staff1	*
*IGacmp	*IGacmp	*	*	*	*
*ICklav	*ICklav	*	*ICvox	*	*
*Ipiano	*Ipiano	*	*Icanto	*	*
*I"	*I"	*	*I"	*	*
*I'	*I'	*	*I'	*	*
*clefF4	*clefG2	*	*clefG2	*	*
*k[f#]	*k[f#]	*	*k[f#]	*	*
*G:	*G:	*	*G:	*	*
*M4/4	*M4/4	*	*M4/4	*	*
*met(c)	*met(c)	*	*met(c)	*	*
*	*^	*	*	*	*
!!LO:TX:t=P:problem:oddech jako v, różnej wielkości
!!LO:TX:a:B:t=Con moto.
8r	8cc/	8cc\	p	8r	.	.
=1	=1	=1	=1	=1	=1	=1
2r	4b'/	8gL 8e\	.	1r	.	.
.	.	8g 8e\J	.	.	.	.
.	4g'/	8e 8c\L	.	.	.	.
.	.	8eJ 8c\	.	.	.	.
8G#X\L	4f#'/	4e 4c\	.	.	.	.
8A\J	.	.	.	.	.	.
4A#X 4C#X 4FF#/	(8dd/L	[4f# [4d\	.	.	.	.
.	8a#X/J	.	.	.	.	.
=2	=2	=2	=2	=2	=2	=2
*^	*	*	*	*	*	*
4B 4D 4GG/	2ryy	8b/L)	4f#] 4d\]	.	2r	.	.
.	.	(16ff#/L	.	.	.	.	.
.	.	16ee/JJ	.	.	.	.	.
4r	.	8dd/L	4ryy	.	.	.	.
.	.	8b/J	.	.	.	.	.
4e/	4A#X 4F#\	4cc\)	2ryy	.	4r	.	.
4r	4ryy	8r	.	.	8r	.	.
!!LO:TX:a:rj:B:t=Affettuoso.
!	!	!	!	!	!	!	!LO:DY:a
.	.	8b\	.	mp	8b\	„Czy	mp
!!LO:LB:g=original
=3	=3	=3	=3	=3	=3	=3	=3
8f#/L	8B\L	4dd/	2b\	.	8dd\	zdro-	.
8f#/J	8B\J	.	.	.	8dd\	-wa	.
8g/L	8c#X\L	4ee/	.	.	8ee\	pa-	.
8g/J	8c#\J	.	.	.	8ee\	-ni	.
4f#/	4d\	4b'/	4a\	.	4b\	kro-	.
4e/	4cn\	(8dd/L	4g\	.	8dd,\	-wa,	.
.	.	8b/J	.	.	8b\	czy	.
=4	=4	=4	=4	=4	=4	=4	=4
8d/L	8B\L	8a/L	8f#\L	.	8a/	ją	.
8c/J	8A\J	8g/J	8e\J	.	8g/	nie	.
8B/L	8G\L	8b/L	4d\	.	8b\	bo-	.
8A/J	8Fn\J	8g/J)	.	.	8g/	-li	.
8G/L	8C\L	(8e/L	8cn\L	.	2e/	gło-	.
8Fn/	8BB-X\	8d/	8B-X\	.	.	.	.
8E-X/	8AA-X\	8c/	8A-X\	.	.	.	.
8D/J	8GG\J	8Bn/J	8G\J	.	.	.	.
!!LO:LB:g=original
=5	=5	=5	=5	=5	=5	=5	=5
4C#X/	4FF#\	4A#X/)	4F#\	.	2f#/	-wa?”	.
2.F#/	4AA#X\	(4f#/	4c#X\	.	.	.	.
!	!	!	!	!	!LO:N:vis=1	!	!
.	2D\	4e/	2cn\	.	4d/H	Mu	.
!	!	!LO:TX:b:i:t=rit.	!	!	!LO:TX:a:i:t=rit.	!	!
!	!	!	!	!	!LO:N:vis=1	!	!
.	.	[4d/)	.	mf	4g/h	.	.
*v	*v	*	*	*	*	*	*
=6	=6	=6	=6	=6	=6	=6
!!LO:TX:a:B:t=Andante maestoso.
!	!	!	!	!	!	!LO:DY:a
(8GG/L	(4d/]	4B\	.	4d/	„Ba-	mf
8D/J	.	.	.	.	.	.
8G\L	4e/	2e 2c\	.	4e/	-rdzo	.
8G#X\J	.	.	.	.	.	.
8A\L	4f#/	.	.	4f#/	Krzy-	.
8A#X\J	.	.	.	.	.	.
8B\L	4g/	8d#X\L	.	8g,/	-si	.
8c\J)	.	8e\J	.	8e/	i	.
!!LO:PB:g=original
=7	=7	=7	=7	=7	=7	=7
8AA'\L	4a/	4e 4c\	.	4a/	La-	.
8E'\	.	.	.	.	.	.
8A'\	8g/L	8d#X\L	.	8g,/	-lce	.
8B'\J	8f#/J	8dn\J	.	8f#/	dzię-	.
(8c\L	4b/	4e\	.	4b\	-ku-	.
8c#X\	.	.	.	.	.	.
8d\	4a/)	4f#\	.	4a/	-ję,	.
8d#X\J)	.	.	.	.	.	.
=8	=8	=8	=8	=8	=8	=8
*^	*	*	*	*	*	*
8.e\L	2ryy	8.cc/L	8.g\L	.	8r	.	.
.	.	.	.	>	.	.	.
!	!	!	!	!	!	!	!LO:HP:a
.	.	.	.	.	8cc\	nie	>
!	!	!	!LO:N:vis=8	!	!	!	!
16c\Jk	.	16ee/Jk	16g#X\Jk	.	.	.	.
8G#X\L	.	8cc/L	8e\L	.	8cc\	na-	.
8E\J	.	8a/J	8c\J	.	8cc\	-dto	.
4F#/	4BB\	(4d#X/	2B\	.	4d#X/	do-	.
4G#X 4E/	4EE\	4dn/	.	.	8f#/	-brze	.
.	.	.	.	]]	(8f#/	się	]]
!!LO:LB:g=original
=9	=9	=9	=9	=9	=9	=9	=9
2E/	2AA\	2c/	(4A\	.	2c/)	czu-	.
.	.	.	4G\	.	.	.	.
2F#;/	2D#X 2BB\	2B;/)	2B\)	.	2B;/	-ję!	.
*v	*v	*	*	*	*	*	*
=10	=10	=10	=10	=10	=10	=10
!	!	!	!	!LO:TX:t=P:problem:kłopot z zapisem gliss.	!	!
!	!	!	!	!LO:N:vis=1	!	!
32qqEE/LLL	.	.	.	32qqd/LLLH	Mu!	.
32qqFF#/	.	.	.	32qqe/yy	.	.
32qqGG/	.	.	.	32qqf#/yy	.	.
32qqAA/JJJ	.	.	.	32qqg/yy	.	.
4BB/	8b/L	8gL 8e\	.	8d/yy	.	.
!	!	!	!	!LO:N:vis=1	!	!
.	8b/J	8gJ 8e\	.	8g/h	.	.
!!LO:TX:a:B:t=Lamentoso.
4E\	8b/L	8gL 8e\	.	8r	.	.
.	8b/J	8gJ 8e\	.	8b\	Pa-	.
[4B\	8b/L	8gL 8e\	.	8b\	-stwi-	.
.	8b/J	8gJ 8e\	.	8b\	-sko	.
8B\L]	8cc/L	8gL 8e\	.	8cc,\	jest	.
8A\J	8ddn/J	8gJ 8d#X\	.	8dd\	nie	.
!!LO:LB:g=original
=11	=11	=11	=11	=11	=11	=11
*^	*	*	*	*	*	*
8e/L	2.G\	8bL 8f#/	4ryy	.	2b\	bli-	.
8d#X/J	.	8bJ 8f#/	.	.	.	.	.
8dn/L	.	4gg/	4ff# 4b\	.	.	.	.
8c#X/J	.	.	.	.	.	.	.
8cn/L	.	8a/L	8e\L	.	4a/	-sko	.
8B/J	.	8a/J	8dn\J	.	.	.	.
8A/L	4Fn\	4gg/	4ff#X 4b\	f	8r	.	.
!	!	!	!	!	!	!	!LO:DY:a
8d#X/J	.	.	.	.	8b\	i	f
=12	=12	=12	=12	=12	=12	=12	=12
!!LO:TX:a:B:t=Tragico.
4e 4G/	4C\	16gg/LL	4g\	<	4cc\	fo-	.
.	.	16cc/	.	.	.	.	.
.	.	16dd/	.	.	.	.	.
.	.	16ee/JJ	.	.	.	.	.
!	!	!	!	!	!LO:TX:t=P:problem:większa cenzura (?)	!	!
8BBL 8BBB/	2.ryy	8ffnL 8dd-X/	8a\L	.	4d#X,/	-lwark	.
8d#XJ 8B/	.	8gg/J	8g\J	[	.	.	.
*	*	*	*	*	*Xbrackettup	*	*
!	!	!LO:TUP:a:problem:klamra łukowa	!LO:TUP:b:problem:klamra łukowa	!	!LO:TUP:a:problem:klamra łukowa	!	!
12AAL 12AAA/	.	12aa/L	12a\L	.	12a/	sto-	.
12r	.	12gg/,	12g\	.	12g,/	-i	.
12eJ 12c 12A/	.	12ff#X/J	12f#X\J	.	12f#/	u	.
!	!	!LO:TUP:a:problem:klamra łukowa	!LO:TUP:b:problem:klamra łukowa	!	!LO:TUP:a:problem:klamra łukowa	!	!
12GGL 12GGG/	.	12bb/L	12b\L	.	12b\	wo-	.
12r	.	12gg/	12g\	.	12g,/	-dy	.
12cJ 12G 12E 12C/	.	12ee/J	12e\J	.	12e/	za	.
!!LO:PB:g=original
=13	=13	=13	=13	=13	=13	=13	=13
!	!	!LO:TX:b:i:t=rit.	!	!	!	!	!
!LO:TUP:a:problem:klamra łukowa	!	!LO:TUP:a:problem:klamra łukowa	!LO:TUP:b:problem:klamra łukowa	!	!	!	!
12G#X/L	4E 4EE\	12f#/L	12eL 12c\	.	2f#/	ni-	.
12G#/	.	12f#/	12e 12c\	.	.	.	.
12G#/J	.	12f#/J	12eJ 12c\	.	.	.	.
!LO:TUP:a:problem:klamra łukowa	!	!LO:TUP:a:problem:klamra łukowa	!LO:TUP:b:problem:klamra łukowa	!	!	!	!
12G#/L	4EE 4EEE\^	12f#/L	12eL 12c\	.	.	.	.
12G#/	.	12f#/	12e 12c\	.	.	.	.
12G#/J	.	12f#/J	12eJ 12c\	.	.	.	.
4E;/	4FF# 4FFF#\^;	4c^;/	8B\L	.	4c;/,	-sko.	.
.	.	.	8A#X;\J	.	.	.	.
!!LO:TX:a:B:t=Pesante disperato.
!	!	!	!	!	!	!	!LO:HP:a
!LO:TUP:a:problem:klamra łukowa	!LO:TUP:b:problem:klamra łukowa	!	!	!	!LO:TUP:a:problem:klamra łukowa	!	!LO:DY:a:rj
12B/L	12F#L 12D#X 12BB\	4r	4ryy	mf	12B/	Kie-	mf <
12c#X/	12G#X 12E# 12C#X\	.	.	.	12c#X/	-dy	.
12d#X/J	12A#XJ 12F## 12D#X\	.	.	.	12d#X/	się	.
=14	=14	=14	=14	=14	=14	=14	=14
*	*	*	*^	*	*	*	*
!	!	!LO:TX:b:i:t=Funebre	!	!	!	!LO:TX:t=P:problem:większa cenzura (?)	!	!
4B/	4B 4Gn 4E\	4e^/	4ryy	2e\	.	4e,/	kto	.
4E/	4AA\	8f#/L	4c\	.	.	8f#/	ro-	[
.	.	8g/J	.	.	.	8g/	-bi	.
4GG^/	4CC\	4b 4g^/	4d#X 4B\	2ryy	.	4b^\	sta-	.
4EE/	4AAA\	4cc 4a/	4e 4c\	.	.	4a/	-ry	.
*	*	*	*v	*v	*	*	*	*
!!LO:LB:g=original
=15	=15	=15	=15	=15	=15	=15	=15
!	!	!	!	!	!LO:N:vis=1	!	!
4GG/	4CC\	2r	2ryy	.	4g/H	Mu!	.
!	!	!	!	!	!LO:N:vis=1	!	!
4EE/	4AAA\	.	.	.	4d/h	.	.
*	*	*tuplet	*Xtuplet	*	*	*	*
!	!	!LO:TUP:a:problem:klamra łukowa	!	!	!LO:TUP:a:problem:klamra łukowa	!	!
4GG/	4CC\	12ddn/L	6g 6d#X\	.	12dd\	szko-	.
.	.	12cc/	.	.	12cc\	-dzi	.
.	.	12b/J	12c#X\	.	12b\	mu	.
!	!	!LO:TUP:a:problem:klamra łukowa	!	!	!LO:TUP:a:problem:klamra łukowa	!	!
4EE/	4AAA\	12an/L	4e 4A#X\	.	12a/	spa-	.
.	.	12g/	.	.	12g/	-cer	.
.	.	12f#/J	.	.	12f#/	da-	.
=16	=16	=16	=16	=16	=16	=16	=16
*	*^	*	*^	*	*	*	*
4GG/	4CC\	4ryy	4b/	4e 4cn\	2ryy	.	4b\	-le-	.
4G#X/	4AAA\	4EE/	8gn/L	4c\	.	.	8g,/	-ki	.
.	.	.	8e/J	.	.	.	8e/	i	.
!	!	!	!	!	!	!	!	!	!LO:DY:a
2A#X^/	4CC\	4GGn/	4g#X^/	2e\	4ryy	f	4ee^\	zi-	f
.	4AAA\	4EE/	4a#X/	.	4gn\	.	8a#,/	-mne	.
.	.	.	.	.	.	.	8a#/	o-	.
*	*v	*v	*	*	*	*	*	*	*
!!LO:LB:g=original
=17	=17	=17	=17	=17	=17	=17	=17	=17
4GG/	4CC\	2b 2gn 2e/	2.B\	4ryy	.	2b\	-pa-	.
.	.	.	.	.	>	.	.	.
4EE/	4AAA\	.	.	4ryy	.	.	.	.
4GG/	4CC\	2e-X^/	.	4d\	.	2d#X/	-ry.”	.
4EE/	4AAA\	.	4ryy	4c 4A\	.	.	.	.
.	.	.	.	.	]	.	.	.
*	*	*	*v	*v	*	*	*	*
=18	=18	=18	=18	=18	=18	=18	=18
!	!	!	!	!	!LO:N:vis=1	!	!
4GG/	4CC\	[1en	[>1B [1G	.	4d/H	Mu!	.
!	!	!	!	!	!LO:N:vis=1	!	!
4EE/	4AAA\	.	.	.	4g/h	.	.
!	!	!	!	!	!LO:N:vis=1	!	!
4GG/	4CC\	.	.	.	4d/H	mu!	.
!	!	!	!	!	!LO:N:vis=1	!	!
4EE/	4AAA\	.	.	.	4b/h	.	.
*v	*v	*	*	*	*	*	*
=19	=19	=19	=19	=19	=19	=19
!	!	!	!	!LO:N:vis=1	!	!
2.EE 2.BBB 2.EEE/	2.e/]	2.B] 2.G\]	.	2e/H	Mu!	.
!	!	!	!	!LO:N:vis=1	!	!
.	.	.	.	4d/h	.	.
4r	4r	4ryy	.	4r	.	.
*	*v	*v	*	*	*	*
==	==	==	==	==	==
*-	*-	*-	*-	*-	*-
!!!system-decoration: s1{(s2,s3)}
!!!RDF**kern: > = above
!!!RDF**kern: < = below
!!!RDF**kern: N = linked
!!!ENC: Andrzej Gręziak
!!!EED: Katarzyna Serwa
!!!END: 2025-03-27
!!!EEV: 2025-04-01
